!!!OTL@@FUR: Oh sunait, sunait cjampanis
!!!OTL@IT: Oh! suonate, suonate, campane
!!!OTL@EN: Oh ring, ring the bells
**kern
*clefG2
*k[b-e-]
*B-:
*M2/4
*MM72
*>[A,A]
*>A
8d
8f
=1
4.b-
8cc
8b-
8cc
=2
4b-
4a
8e-
8f
=3
4.g
8a
8g
8a
=4
2f
8d
8f
=5
4.b-
8dd
8dd
8dd
=6
4ff
4ee-
8b-
8ee-
=7
4.dd
8ff
8ee-
8a
=8
4.b-
8r
==:|!
*-
!!!ARE: Friuli
!!!ENC: Kelly Leistikow
!!!END: 2002/03/07
!!!ref: @{OTL@@FUR}/@{OTL@EN}
